local/share/icons/dracula-icons-main/24/places/folder-video.svg

<?xml version="1.0" encoding="UTF-8"?>
<svg xmlns="http://www.w3.org/2000/svg" xmlns:xlink="http://www.w3.org/1999/xlink" width="24" height="24" viewBox="0 0 24 24">
<path fill-rule="nonzero" fill="rgb(100%, 100%, 100%)" fill-opacity="1" d="M 7 5 C 5.890625 5 5 5.890625 5 7 L 5 17 C 5 18.109375 5.890625 19 7 19 L 17 19 C 18.109375 19 19 18.109375 19 17 L 19 7 C 19 5.890625 18.109375 5 17 5 L 15 5 L 16 9 L 15 9 L 14 5 L 12 5 L 13 9 L 12 9 L 11 5 L 9 5 L 10 9 L 9 9 L 8 5 Z M 7 10 L 17 10 L 17 17 L 7 17 Z M 7 10 "/>
</svg>

<svg width="24" height="24" version="1.1" viewBox="0 0 24 24" xmlns="http://www.w3.org/2000/svg">
 <defs>
  <style id="current-color-scheme" type="text/css">.ColorScheme-Text { color:#FFFFFF; } .ColorScheme-Highlight { color:#5294e2; }</style>
 </defs>
 <path class="ColorScheme-Text" d="m7 5c-1.108 0-2 0.892-2 2v10c0 1.108 0.892 2 2 2h10c1.108 0 2-0.892 2-2v-10c0-1.108-0.892-2-2-2h-2l1 4h-1l-1-4h-2l1 4h-1l-1-4h-2l1 4h-1l-1-4zm0 5h10v7h-10z" fill="currentColor"/>
</svg>
